src/assets/img/catalog-single/weight.svg

<svg width="45" height="44" viewBox="0 0 45 44" fill="none" xmlns="http://www.w3.org/2000/svg">
<g clip-path="url(#clip0)">
<path d="M27.8604 5.5C27.8604 4.41221 27.5336 3.34884 26.9214 2.44437C26.3091 1.5399 25.4389 0.834947 24.4207 0.418665C23.4025 0.00238307 22.2822 -0.106535 21.2013 0.105683C20.1204 0.317902 19.1276 0.841726 18.3483 1.61092C17.5691 2.3801 17.0384 3.36011 16.8234 4.42701C16.6084 5.4939 16.7187 6.59977 17.1405 7.60476C17.5622 8.60976 18.2764 9.46874 19.1927 10.0731C20.109 10.6774 21.1863 11 22.2884 11C23.7657 10.9984 25.182 10.4184 26.2266 9.38728C27.2712 8.35619 27.8588 6.95819 27.8604 5.5ZM22.2884 7.33334C21.921 7.33334 21.5619 7.22581 21.2565 7.02436C20.951 6.82291 20.713 6.53659 20.5724 6.20159C20.4318 5.86659 20.395 5.49797 20.4667 5.14234C20.5384 4.78671 20.7153 4.46004 20.975 4.20364C21.2348 3.94724 21.5657 3.77264 21.926 3.7019C22.2863 3.63116 22.6598 3.66746 22.9991 3.80622C23.3385 3.94498 23.6286 4.17997 23.8327 4.48146C24.0368 4.78295 24.1457 5.1374 24.1457 5.5C24.1452 5.98607 23.9493 6.45206 23.6011 6.79576C23.2529 7.13946 22.7808 7.33279 22.2884 7.33334Z" fill="black" fill-opacity="0.8"/>
<path d="M43.72 37.4864L39.541 15.4864C39.301 14.2258 38.6223 13.0875 37.6223 12.2683C36.6223 11.4491 35.3638 11.0005 34.0643 11H10.489C9.19705 11.002 7.94584 11.4462 6.94863 12.2569C5.95142 13.0676 5.26997 14.1946 5.02044 15.4458L0.66727 37.4458C0.509673 38.2424 0.532632 39.0635 0.7345 39.8503C0.936367 40.6371 1.31214 41.37 1.83486 41.9965C2.35758 42.623 3.0143 43.1275 3.75789 43.4739C4.50149 43.8203 5.31354 44 6.13578 44H38.2434C39.0624 44.0007 39.8714 43.8231 40.6129 43.4798C41.3543 43.1366 42.0099 42.636 42.533 42.014C43.056 41.3919 43.4336 40.6636 43.6387 39.881C43.8439 39.0984 43.8717 38.2808 43.72 37.4864ZM39.6726 39.6708C39.4995 39.8794 39.2813 40.0472 39.034 40.1618C38.7867 40.2764 38.5166 40.335 38.2434 40.3333H6.13578C5.86273 40.3302 5.59367 40.2683 5.34739 40.1518C5.10112 40.0354 4.88358 39.8672 4.70999 39.6592C4.53639 39.4511 4.41092 39.2081 4.34236 38.9472C4.27379 38.6863 4.26378 38.4138 4.31302 38.1487L8.66619 16.1487C8.74936 15.7316 8.9765 15.356 9.30889 15.0857C9.64127 14.8155 10.0583 14.6674 10.489 14.6667H34.0643C34.4975 14.6667 34.9171 14.8161 35.2505 15.0892C35.5838 15.3622 35.81 15.7417 35.8899 16.162L40.0689 38.162C40.121 38.4267 40.1125 38.6996 40.0439 38.9607C39.9753 39.2218 39.8485 39.4644 39.6726 39.6708Z" fill="black" fill-opacity="0.8"/>
<path d="M14.8587 20.167H11.144V33.0003C11.144 33.4865 11.3397 33.9529 11.688 34.2967C12.0364 34.6405 12.5088 34.8336 13.0014 34.8336H20.4308V31.167H14.8587V20.167Z" fill="black" fill-opacity="0.8"/>
<path d="M28.7893 20.167H24.1459C23.6533 20.167 23.1809 20.3602 22.8326 20.704C22.4843 21.0478 22.2886 21.5141 22.2886 22.0003V33.0003C22.2886 33.4866 22.4843 33.9529 22.8326 34.2967C23.1809 34.6405 23.6533 34.8337 24.1459 34.8337H28.7893C29.6522 34.8353 30.4985 34.5991 31.2328 34.1516C31.9671 33.7042 32.5602 33.0632 32.9454 32.301C33.3306 31.5388 33.4925 30.6855 33.413 29.8374C33.3334 28.9892 33.0156 28.1798 32.4952 27.5003C33.0156 26.8209 33.3334 26.0115 33.413 25.1633C33.4925 24.3151 33.3306 23.4619 32.9454 22.6997C32.5602 21.9374 31.9671 21.2965 31.2328 20.8491C30.4985 20.4016 29.6522 20.1654 28.7893 20.167ZM26.0033 23.8337H28.7893C29.0356 23.8337 29.2718 23.9302 29.446 24.1022C29.6201 24.2741 29.718 24.5072 29.718 24.7503C29.718 24.9935 29.6201 25.2266 29.446 25.3985C29.2718 25.5704 29.0356 25.667 28.7893 25.667H26.0033V23.8337ZM28.7893 31.167H26.0033V29.3337H28.7893C29.0356 29.3337 29.2718 29.4302 29.446 29.6022C29.6201 29.7741 29.718 30.0072 29.718 30.2503C29.718 30.4935 29.6201 30.7266 29.446 30.8985C29.2718 31.0704 29.0356 31.167 28.7893 31.167Z" fill="black" fill-opacity="0.8"/>
</g>
<defs>
<clipPath id="clip0">
<rect width="44.5765" height="44" fill="white"/>
</clipPath>
</defs>
</svg>

<svg width="45" height="44" fill="none" xmlns="http://www.w3.org/2000/svg"><g clip-path="url(#clip0)" fill="#000" fill-opacity=".8"><path d="M27.86 5.5a5.45 5.45 0 00-.939-3.056 5.557 5.557 0 00-2.5-2.025A5.64 5.64 0 0021.2.106a5.595 5.595 0 00-2.853 1.505 5.487 5.487 0 00-1.525 2.816 5.433 5.433 0 00.317 3.178 5.516 5.516 0 002.053 2.468 5.624 5.624 0 007.034-.686A5.47 5.47 0 0027.86 5.5zm-5.572 1.833c-.367 0-.726-.107-1.032-.309a1.838 1.838 0 01-.684-.822 1.81 1.81 0 01.403-1.998 1.88 1.88 0 012.024-.397c.34.138.63.373.834.674a1.816 1.816 0 01-.232 2.315c-.348.343-.82.537-1.313.537z"/><path d="M43.72 37.486l-4.179-22a5.49 5.49 0 00-1.919-3.218A5.62 5.62 0 0034.064 11H10.49a5.627 5.627 0 00-3.54 1.257 5.497 5.497 0 00-1.929 3.189l-4.353 22a5.43 5.43 0 00.068 2.404c.201.787.577 1.52 1.1 2.146a5.563 5.563 0 001.923 1.478A5.632 5.632 0 006.136 44h32.107a5.63 5.63 0 002.37-.52 5.56 5.56 0 001.92-1.466 5.47 5.47 0 001.106-2.133c.205-.783.233-1.6.081-2.395zm-4.047 2.185a1.853 1.853 0 01-1.43.663H6.136a1.894 1.894 0 01-1.426-.675 1.843 1.843 0 01-.397-1.51l4.353-22c.083-.417.31-.793.643-1.063a1.88 1.88 0 011.18-.42h23.575c.434 0 .853.15 1.187.423.333.273.559.653.639 1.073l4.179 22a1.785 1.785 0 01-.396 1.509z"/><path d="M14.859 20.167h-3.715V33c0 .486.196.953.544 1.297.348.344.82.537 1.313.537h7.43v-3.667h-5.572v-11zm13.931 0h-4.644a1.87 1.87 0 00-1.313.537c-.349.344-.544.81-.544 1.296v11c0 .487.195.953.544 1.297.348.344.82.537 1.313.537h4.643a4.68 4.68 0 002.444-.682 4.597 4.597 0 001.712-1.851 4.524 4.524 0 00-.45-4.8 4.524 4.524 0 00.45-4.8 4.596 4.596 0 00-1.712-1.852 4.68 4.68 0 00-2.444-.682zm-2.787 3.667h2.786c.247 0 .483.096.657.268a.91.91 0 010 1.296.935.935 0 01-.657.269h-2.786v-1.833zm2.786 7.333h-2.786v-1.833h2.786c.247 0 .483.096.657.268a.91.91 0 010 1.296.935.935 0 01-.657.269z"/></g><defs><clipPath id="clip0"><path fill="#fff" d="M0 0h44.577v44H0z"/></clipPath></defs></svg>
